!!!OTL: In natali domini
**kern
*staff1
=1-
*clefF4
*k[b-]
*M3/1
1G
2D\
1G
2B-\
1F
2G\
1D;
=2
1BB-
2BB-/
1F
2BB-/
2C/
1D
1GG;
=3
!!linebreak:original
1D
2G\
1F
2D\
2BB-/
1C
1FF;
=4
!LO:TX:Y=-47:t=P
1F
2B-\
1F
2B-\
2c\
1G
1C;
!!linebreak:original
=5
1G
2G\
1B-
2F\
2G\
1D
1GG
=6
1D
2G\
1F
2D\
2BB-/
1C
1D;
=7
1BB-
2BB-/
1F
2G\
2C/
1D
0GG
==
*-
!!title: @{OTL}, @{GTL}, ed. @{ENC}
!!!pag:
!!!GTL: Hymnbook D
!!!EFL: 
!!!YEM: Creative Commons CC/BY/NC/SA 4.0
!!!ENC: Marcin Konik
!!!END: 2015-0m-dd
!!!EED: Marcin Konik
!!!EEV: 
!!!ONB: Encoded in vim by Marcin Konik
!!!CharacterEncoding: utf-8
!!!RDF**kern: l=long note in original notation
!!!RDF**kern: i=editorial accidental
!!muse2ps: z14jc180F
!!!COM: Anonim
!!!CDT: [?]
!!!TXO: Polish
!!!ODT: 
!!!GTL: Hymnbook D
!!!ARL: Opactwo św. Wojciecha, Staniątki 
!!!voices:	1
